;FLAVOR:UltiGCode
;TIME:1765
;MATERIAL:4579
;MATERIAL2:0
;NOZZLE_DIAMETER:0.400000
;NOZZLE_DIAMETER2:0.400000

;Layer count: 44
;LAYER:0
M107
G0 F9000 X-7.800 Y36.098 Z0.300
;TYPE:SKIRT
G1 F1200 X-7.800 Y46.200 E1.21224
G1 X-24.200 Y46.200 E3.18024
G1 X-24.200 Y-46.200 E14.26824
G1 X-7.800 Y-46.200 E16.23624
G1 X-7.800 Y-36.200 E17.43624
G1 X7.800 Y-36.200 E19.30824
G1 X7.800 Y-46.200 E20.50824
G1 X24.200 Y-46.200 E22.47624
G1 X24.200 Y36.098 E32.35200
G1 X-7.800 Y36.098 E36.19200
G10
G0 F9000 X-11.200 Y32.698
;TYPE:WALL-OUTER
G11
G1 F1200 X-11.200 Y42.800 E37.40424
G1 X-20.800 Y42.800 E38.55624
G1 X-20.800 Y-42.800 E48.82824
G1 X-11.200 Y-42.800 E49.98024
G1 X-11.200 Y-32.800 E51.18024
G1 X11.200 Y-32.800 E53.86824
G1 X11.200 Y-42.800 E55.06824
G1 X20.800 Y-42.800 E56.22024
G1 X20.800 Y32.698 E65.28000
G1 X-11.200 Y32.698 E69.12000
G0 F9000 X-11.200 Y32.398
G0 X-11.541 Y32.357
G0 X-14.346 Y35.871
G0 X-14.542 Y36.096
G1 F1200 X-14.729 Y35.985 E69.14610
G1 X-15.087 Y35.851 E69.19197
G1 X-15.295 Y35.812 E69.21736
G1 X-15.523 Y35.799 E69.24477
G1 X-15.923 Y35.853 E69.29320
G1 X-16.299 Y35.999 E69.34160
G1 X-16.478 Y36.111 E69.36694
G1 X-16.638 Y36.238 E69.39145
G1 X-16.787 Y36.390 E69.41700
G1 X-17.013 Y36.724 E69.46539
G1 X-17.149 Y37.087 E69.51191
G1 X-17.188 Y37.295 E69.53730
G1 X-17.201 Y37.523 E69.56471
G1 X-17.147 Y37.923 E69.61314
G1 X-16.999 Y38.304 E69.66219
G1 X-16.773 Y38.629 E69.70969
G1 X-16.453 Y38.909 E69.76072
G1 X-16.088 Y39.096 E69.80993
G1 X-15.710 Y39.188 E69.85661
G1 X-15.478 Y39.201 E69.88450
G1 X-15.077 Y39.148 E69.93304
G1 X-14.696 Y38.999 E69.98213
G1 X-14.376 Y38.777 E70.02886
G1 X-14.212 Y38.611 E70.05687
G1 X-13.990 Y38.281 E70.10459
G1 X-13.903 Y38.082 E70.13066
G1 X-13.812 Y37.710 E70.17661
G1 X-13.799 Y37.478 E70.20450
G1 X-13.852 Y37.077 E70.25303
G1 X-14.001 Y36.696 E70.30213
G1 X-14.227 Y36.372 E70.34953
G1 X-14.542 Y36.096 E70.39979
G0 F9000 X-14.346 Y35.871
G0 X-15.494 Y-36.501
G0 X-15.478 Y-36.799
G1 F1200 X-15.077 Y-36.852 E70.44833
G1 X-14.696 Y-37.001 E70.49742
G1 X-14.376 Y-37.223 E70.54415
G1 X-14.212 Y-37.389 E70.57216
G1 X-13.990 Y-37.719 E70.61988
G1 X-13.903 Y-37.918 E70.64595
G1 X-13.812 Y-38.290 E70.69190
G1 X-13.799 Y-38.522 E70.71978
G1 X-13.852 Y-38.923 E70.76832
G1 X-14.001 Y-39.304 E70.81742
G1 X-14.223 Y-39.624 E70.86415
G1 X-14.389 Y-39.788 E70.89215
G1 X-14.724 Y-40.013 E70.94058
G1 X-15.087 Y-40.149 E70.98710
G1 X-15.295 Y-40.188 E71.01249
G1 X-15.523 Y-40.201 E71.03990
G1 X-15.923 Y-40.147 E71.08833
G1 X-16.299 Y-40.001 E71.13673
G1 X-16.478 Y-39.889 E71.16207
G1 X-16.643 Y-39.758 E71.18735
G1 X-16.904 Y-39.458 E71.23507
G1 X-17.015 Y-39.271 E71.26117
G1 X-17.149 Y-38.913 E71.30704
G1 X-17.188 Y-38.705 E71.33243
G1 X-17.201 Y-38.477 E71.35984
G1 X-17.147 Y-38.077 E71.40827
G1 X-16.999 Y-37.696 E71.45732
G1 X-16.773 Y-37.371 E71.50482
G1 X-16.453 Y-37.091 E71.55585
G1 X-16.088 Y-36.904 E71.60506
G1 X-15.710 Y-36.812 E71.65174
G1 X-15.478 Y-36.799 E71.67963
G0 F9000 X-15.494 Y-36.501
G0 X-11.541 Y-32.459
G0 X11.541 Y-32.459
G0 X14.501 Y-38.493
G0 X14.799 Y-38.477
G1 F1200 X14.853 Y-38.077 E71.72806
G1 X15.001 Y-37.696 E71.77711
G1 X15.227 Y-37.371 E71.82461
G1 X15.547 Y-37.091 E71.87564
G1 X15.912 Y-36.904 E71.92485
G1 X16.290 Y-36.812 E71.97154
G1 X16.522 Y-36.799 E71.99942
G1 X16.923 Y-36.852 E72.04796
G1 X17.304 Y-37.001 E72.09705
G1 X17.624 Y-37.223 E72.14379
G1 X17.788 Y-37.389 E72.17179
G1 X18.010 Y-37.719 E72.21952
G1 X18.097 Y-37.918 E72.24558
G1 X18.188 Y-38.290 E72.29153
G1 X18.201 Y-38.522 E72.31942
G1 X18.148 Y-38.923 E72.36796
G1 X17.999 Y-39.304 E72.41705
G1 X17.777 Y-39.624 E72.46378
G1 X17.611 Y-39.788 E72.49179
G1 X17.276 Y-40.013 E72.54021
G1 X16.913 Y-40.149 E72.58673
G1 X16.705 Y-40.188 E72.61212
G1 X16.477 Y-40.201 E72.63953
G1 X16.077 Y-40.147 E72.68796
G1 X15.701 Y-40.001 E72.73637
G1 X15.522 Y-39.889 E72.76170
G1 X15.357 Y-39.758 E72.78699
G1 X15.096 Y-39.458 E72.83470
G1 X14.985 Y-39.271 E72.86080
G1 X14.851 Y-38.913 E72.90667
G1 X14.812 Y-38.705 E72.93206
G1 X14.799 Y-38.477 E72.95947
G0 F9000 X14.695 Y-38.196
;TYPE:SKIN
G1 F1200 X11.339 Y-41.551 E73.52892
G0 F9000 X11.339 Y-40.986
G1 F1200 X20.660 Y-31.665 E75.11074
G0 F9000 X20.660 Y-31.099
G1 F1200 X11.339 Y-40.420 E76.69257
G0 F9000 X11.500 Y-40.420
G0 X11.500 Y-42.117
G0 X11.339 Y-42.117
G1 F1200 X14.683 Y-38.774 E77.25998
G0 F9000 X14.813 Y-39.209
G1 F1200 X11.363 Y-42.659 E77.84546
G0 F9000 X11.929 Y-42.659
G1 F1200 X15.013 Y-39.575 E78.36884
G0 F9000 X15.279 Y-39.875
G1 F1200 X12.495 Y-42.659 E78.84130
G0 F9000 X13.060 Y-42.659
G1 F1200 X15.610 Y-40.109 E79.27405
G0 F9000 X16.013 Y-40.271
G1 F1200 X13.626 Y-42.659 E79.67922
G0 F9000 X14.192 Y-42.659
G1 F1200 X16.512 Y-40.339 E80.07293
G0 F9000 X17.242 Y-40.174
G1 F1200 X14.758 Y-42.659 E80.49457
G0 F9000 X15.323 Y-42.659
G1 F1200 X20.660 Y-37.322 E81.40029
G0 F9000 X20.660 Y-36.756
G1 F1200 X18.171 Y-39.245 E81.82268
G0 F9000 X18.340 Y-38.511
G1 F1200 X20.660 Y-36.191 E82.21640
G0 F9000 X20.660 Y-35.625
G1 F1200 X18.265 Y-38.019 E82.62276
G0 F9000 X18.106 Y-37.613
G1 F1200 X20.660 Y-35.059 E83.05619
G0 F9000 X20.660 Y-34.494
G1 F1200 X17.875 Y-37.278 E83.52873
G0 F9000 X17.573 Y-37.014
G1 F1200 X20.660 Y-33.928 E84.05253
G0 F9000 X20.660 Y-33.362
G1 F1200 X17.210 Y-36.812 E84.63802
G0 F9000 X16.768 Y-36.688
G1 F1200 X20.660 Y-32.797 E85.29843
G0 F9000 X20.660 Y-32.231
G1 F1200 X16.204 Y-36.686 E86.05455
G0 F9000 X16.167 Y-36.534
G0 X11.500 Y-36.460
G0 X11.339 Y-36.460
G1 F1200 X20.660 Y-27.140 E87.63629
G0 F9000 X20.660 Y-27.705
G1 F1200 X11.339 Y-37.026 E89.21812
G0 F9000 X11.339 Y-37.591
G1 F1200 X20.660 Y-28.271 E90.79986
G0 F9000 X20.660 Y-28.837
G1 F1200 X11.339 Y-38.157 E92.38160
G0 F9000 X11.339 Y-38.723
G1 F1200 X20.660 Y-29.402 E93.96342
G0 F9000 X20.660 Y-29.968
G1 F1200 X11.339 Y-39.288 E95.54517
G0 F9000 X11.339 Y-39.854
G1 F1200 X20.660 Y-30.534 E97.12691
G0 F9000 X20.500 Y-30.534
G0 X20.500 Y-26.574
G0 X20.660 Y-26.574
G1 F1200 X11.339 Y-35.894 E98.70865
G0 F9000 X11.339 Y-35.329
G1 F1200 X20.660 Y-26.008 E100.29047
G0 F9000 X20.660 Y-25.443
G1 F1200 X11.339 Y-34.763 E101.87222
G0 F9000 X11.339 Y-34.197
G1 F1200 X20.660 Y-24.877 E103.45396
G0 F9000 X20.660 Y-24.311
G1 F1200 X11.339 Y-33.632 E105.03578
G0 F9000 X11.339 Y-33.066
G1 F1200 X20.660 Y-23.746 E106.61752
G0 F9000 X20.660 Y-23.180
G1 F1200 X11.181 Y-32.659 E108.22616
G0 F9000 X10.615 Y-32.659
G1 F1200 X20.660 Y-22.614 E109.93086
G0 F9000 X20.660 Y-22.049
G1 F1200 X10.050 Y-32.659 E111.73143
G0 F9000 X9.484 Y-32.659
G1 F1200 X20.660 Y-21.483 E113.62806
G0 F9000 X20.660 Y-20.917
G1 F1200 X8.918 Y-32.659 E115.62075
G0 F9000 X8.353 Y-32.659
G1 F1200 X20.660 Y-20.351 E117.70940
G0 F9000 X20.500 Y-20.351
G0 X20.500 Y-37.888
G0 X20.660 Y-37.888
G1 F1200 X15.889 Y-42.659 E118.51907
G0 F9000 X16.455 Y-42.659
G1 F1200 X20.660 Y-38.453 E119.23276
G0 F9000 X20.660 Y-39.019
G1 F1200 X17.020 Y-42.659 E119.85049
G0 F9000 X17.586 Y-42.659
G1 F1200 X20.660 Y-39.585 E120.37217
G0 F9000 X20.660 Y-40.150
G1 F1200 X18.152 Y-42.659 E120.79787
G0 F9000 X18.717 Y-42.659
G1 F1200 X20.660 Y-40.716 E121.12761
G0 F9000 X20.660 Y-41.282
G1 F1200 X19.283 Y-42.659 E121.36130
G0 F9000 X19.849 Y-42.659
G1 F1200 X20.660 Y-41.847 E121.49901
G0 F9000 X20.660 Y-42.413
G1 F1200 X20.414 Y-42.659 E121.54076
G0 F9000 X20.414 Y-42.500
G0 X15.080 Y-40.047
G0 X14.400 Y-38.462
G0 X11.541 Y-32.459
G0 X7.787 Y-32.500
G0 X7.787 Y-32.659
G1 F1200 X20.660 Y-19.786 E123.72538
G0 F9000 X20.660 Y-19.220
G1 F1200 X7.221 Y-32.659 E126.00605
G0 F9000 X6.655 Y-32.659
G1 F1200 X20.660 Y-18.654 E128.38278
G0 F9000 X20.660 Y-18.089
G1 F1200 X6.090 Y-32.659 E130.85539
G0 F9000 X5.524 Y-32.659
G1 F1200 X20.660 Y-17.523 E133.42406
G0 F9000 X20.660 Y-16.957
G1 F1200 X4.958 Y-32.659 E136.08877
G0 F9000 X4.393 Y-32.659
G1 F1200 X20.660 Y-16.392 E138.84938
G0 F9000 X20.660 Y-15.826
G1 F1200 X3.827 Y-32.659 E141.70603
G0 F9000 X3.261 Y-32.659
G1 F1200 X20.660 Y-15.260 E144.65874
G0 F9000 X20.660 Y-14.695
G1 F1200 X2.696 Y-32.659 E147.70733
G0 F9000 X2.130 Y-32.659
G1 F1200 X20.660 Y-14.129 E150.85198
G0 F9000 X20.660 Y-13.563
G1 F1200 X1.564 Y-32.659 E154.09267
G0 F9000 X0.999 Y-32.659
G1 F1200 X20.660 Y-12.998 E157.42926
G0 F9000 X20.660 Y-12.432
G1 F1200 X0.433 Y-32.659 E160.86189
G0 F9000 X-0.132 Y-32.659
G1 F1200 X20.660 Y-11.866 E164.39050
G0 F9000 X20.660 Y-11.300
G1 F1200 X-0.697 Y-32.659 E168.01507
G0 F9000 X-1.263 Y-32.659
G1 F1200 X20.660 Y-10.735 E171.73561
G0 F9000 X20.660 Y-10.169
G1 F1200 X-1.829 Y-32.659 E175.55221
G0 F9000 X-2.394 Y-32.659
G1 F1200 X20.660 Y-9.603 E179.46477
G0 F9000 X20.660 Y-9.038
G1 F1200 X-2.960 Y-32.659 E183.47330
G0 F9000 X-3.526 Y-32.659
G1 F1200 X20.660 Y-8.472 E187.57789
G0 F9000 X20.660 Y-7.906
G1 F1200 X-4.092 Y-32.659 E191.77852
G0 F9000 X-4.657 Y-32.659
G1 F1200 X20.660 Y-7.341 E196.07505
G0 F9000 X20.660 Y-6.775
G1 F1200 X-5.223 Y-32.659 E200.46762
G0 F9000 X-5.789 Y-32.659
G1 F1200 X20.660 Y-6.209 E204.95625
G0 F9000 X20.660 Y-5.644
G1 F1200 X-6.354 Y-32.659 E209.54076
G0 F9000 X-6.920 Y-32.659
G1 F1200 X20.660 Y-5.078 E214.22133
G0 F9000 X20.660 Y-4.512
G1 F1200 X-7.486 Y-32.659 E218.99795
G0 F9000 X-8.051 Y-32.659
G1 F1200 X20.660 Y-3.947 E223.87045
G0 F9000 X20.660 Y-3.381
G1 F1200 X-8.617 Y-32.659 E228.83901
G0 F9000 X-9.183 Y-32.659
G1 F1200 X20.660 Y-2.815 E233.90362
G0 F9000 X20.660 Y-2.250
G1 F1200 X-9.748 Y-32.659 E239.06411
G0 F9000 X-10.314 Y-32.659
G1 F1200 X20.660 Y-1.684 E244.32066
G0 F9000 X20.660 Y-1.118
G1 F1200 X-10.880 Y-32.659 E249.67326
G0 F9000 X-11.339 Y-33.118
G1 F1200 X-14.965 Y-36.744 E250.28861
G0 F9000 X-14.569 Y-36.914
G1 F1200 X-11.339 Y-33.684 E250.83676
G0 F9000 X-11.339 Y-34.250
G1 F1200 X-14.245 Y-37.155 E251.32984
G0 F9000 X-13.991 Y-37.467
G1 F1200 X-11.339 Y-34.815 E251.77990
G0 F9000 X-11.339 Y-35.381
G1 F1200 X-13.788 Y-37.830 E252.19551
G0 F9000 X-13.672 Y-38.279
G1 F1200 X-11.339 Y-35.947 E252.59135
G0 F9000 X-11.339 Y-36.512
G1 F1200 X-13.704 Y-38.877 E252.99270
G0 F9000 X-13.546 Y-38.897
G0 X-11.500 Y-38.775
G0 X-11.339 Y-38.775
G1 F1200 X-15.223 Y-42.659 E253.65184
G0 F9000 X-15.788 Y-42.659
G1 F1200 X-11.339 Y-38.209 E254.40694
G0 F9000 X-11.339 Y-37.644
G1 F1200 X-16.354 Y-42.659 E255.25802
G0 F9000 X-16.920 Y-42.659
G1 F1200 X-11.339 Y-37.078 E256.20514
G0 F9000 X-11.500 Y-37.078
G0 X-11.500 Y-39.341
G0 X-11.339 Y-39.341
G1 F1200 X-14.657 Y-42.659 E256.76823
G0 F9000 X-14.091 Y-42.659
G1 F1200 X-11.339 Y-39.906 E257.23534
G0 F9000 X-11.500 Y-39.906
G0 X-14.509 Y-36.648
G0 X-15.428 Y-36.504
G0 X-15.446 Y-36.659
G1 F1200 X20.660 Y-0.552 E263.36282
G0 F9000 X20.660 Y0.012
G1 F1200 X-16.117 Y-36.764 E269.60400
G0 F9000 X-16.154 Y-36.612
G0 X-17.353 Y-37.509
G0 X-17.362 Y-37.803
G0 X-17.213 Y-37.860
G1 F1200 X-20.660 Y-41.307 E270.18897
G0 F9000 X-20.660 Y-40.742
G1 F1200 X20.660 Y0.578 E277.20121
G0 F9000 X20.660 Y1.144
G1 F1200 X-20.660 Y-40.176 E284.21345
G0 F9000 X-20.500 Y-40.176
G0 X-20.500 Y-41.873
G0 X-20.660 Y-41.873
G1 F1200 X-17.336 Y-38.550 E284.77746
G0 F9000 X-17.253 Y-39.032
G1 F1200 X-20.660 Y-42.439 E285.35565
G0 F9000 X-20.314 Y-42.659
G1 F1200 X-17.082 Y-39.427 E285.90414
G0 F9000 X-16.836 Y-39.747
G1 F1200 X-19.748 Y-42.659 E286.39832
G0 F9000 X-19.183 Y-42.659
G1 F1200 X-16.539 Y-40.015 E286.84702
G0 F9000 X-16.162 Y-40.203
G1 F1200 X-18.617 Y-42.659 E287.26373
G0 F9000 X-18.051 Y-42.659
G1 F1200 X-15.709 Y-40.317 E287.66119
G0 F9000 X-15.125 Y-40.298
G1 F1200 X-17.486 Y-42.659 E288.06186
G0 F9000 X-17.486 Y-42.500
G0 X-13.526 Y-42.500
G0 X-13.526 Y-42.659
G1 F1200 X-11.339 Y-40.472 E288.43301
G0 F9000 X-11.339 Y-41.038
G1 F1200 X-12.960 Y-42.659 E288.70810
G0 F9000 X-12.394 Y-42.659
G1 F1200 X-11.339 Y-41.604 E288.88714
G0 F9000 X-11.339 Y-42.169
G1 F1200 X-11.829 Y-42.659 E288.97029
G0 F9000 X-11.829 Y-42.500
G0 X-20.500 Y-39.610
G0 X-20.660 Y-39.610
G1 F1200 X20.660 Y1.709 E295.98245
G0 F9000 X20.660 Y2.275
G1 F1200 X-20.660 Y-39.045 E302.99468
G0 F9000 X-20.660 Y-38.479
G1 F1200 X20.660 Y2.841 E310.00692
G0 F9000 X20.660 Y3.406
G1 F1200 X-20.660 Y-37.913 E317.01907
G0 F9000 X-20.660 Y-37.347
G1 F1200 X20.660 Y3.972 E324.03122
G0 F9000 X20.660 Y4.538
G1 F1200 X-20.660 Y-36.782 E331.04346
G0 F9000 X-20.660 Y-36.216
G1 F1200 X20.660 Y5.103 E338.05561
G0 F9000 X20.660 Y5.669
G1 F1200 X-20.660 Y-35.650 E345.06776
G0 F9000 X-20.660 Y-35.085
G1 F1200 X20.660 Y6.235 E352.08000
G0 F9000 X20.660 Y6.800
G1 F1200 X-20.660 Y-34.519 E359.09215
G0 F9000 X-20.660 Y-33.953
G1 F1200 X20.660 Y7.366 E366.10430
G0 F9000 X20.660 Y7.932
G1 F1200 X-20.660 Y-33.388 E373.11654
G0 F9000 X-20.660 Y-32.822
G1 F1200 X20.660 Y8.498 E380.12878
G0 F9000 X20.660 Y9.063
G1 F1200 X-20.660 Y-32.256 E387.14093
G0 F9000 X-20.660 Y-31.691
G1 F1200 X20.660 Y9.629 E394.15316
G0 F9000 X20.660 Y10.195
G1 F1200 X-20.660 Y-31.125 E401.16540
G0 F9000 X-20.660 Y-30.559
G1 F1200 X20.660 Y10.760 E408.17755
G0 F9000 X20.660 Y11.326
G1 F1200 X-20.660 Y-29.994 E415.18979
G0 F9000 X-20.660 Y-29.428
G1 F1200 X20.660 Y11.892 E422.20203
G0 F9000 X20.660 Y12.457
G1 F1200 X-20.660 Y-28.862 E429.21418
G0 F9000 X-20.660 Y-28.296
G1 F1200 X20.660 Y13.023 E436.22633
G0 F9000 X20.660 Y13.589
G1 F1200 X-20.660 Y-27.731 E443.23856
G0 F9000 X-20.660 Y-27.165
G1 F1200 X20.660 Y14.154 E450.25072
G0 F9000 X20.660 Y14.720
G1 F1200 X-20.660 Y-26.599 E457.26287
G0 F9000 X-20.660 Y-26.034
G1 F1200 X20.660 Y15.286 E464.27510
G0 F9000 X20.660 Y15.851
G1 F1200 X-20.660 Y-25.468 E471.28726
G0 F9000 X-20.660 Y-24.902
G1 F1200 X20.660 Y16.417 E478.29941
G0 F9000 X20.660 Y16.983
G1 F1200 X-20.660 Y-24.337 E485.31164
G0 F9000 X-20.660 Y-23.771
G1 F1200 X20.660 Y17.548 E492.32380
G0 F9000 X20.660 Y18.114
G1 F1200 X-20.660 Y-23.205 E499.33595
G0 F9000 X-20.660 Y-22.640
G1 F1200 X20.660 Y18.680 E506.34818
G0 F9000 X20.660 Y19.246
G1 F1200 X-20.660 Y-22.074 E513.36042
G0 F9000 X-20.660 Y-21.508
G1 F1200 X20.660 Y19.811 E520.37257
G0 F9000 X20.660 Y20.377
G1 F1200 X-20.660 Y-20.943 E527.38481
G0 F9000 X-20.660 Y-20.377
G1 F1200 X20.660 Y20.943 E534.39705
G0 F9000 X20.660 Y21.508
G1 F1200 X-20.660 Y-19.811 E541.40920
G0 F9000 X-20.660 Y-19.246
G1 F1200 X20.660 Y22.074 E548.42143
G0 F9000 X20.660 Y22.640
G1 F1200 X-20.660 Y-18.680 E555.43367
G0 F9000 X-20.660 Y-18.114
G1 F1200 X20.660 Y23.205 E562.44582
G0 F9000 X20.660 Y23.771
G1 F1200 X-20.660 Y-17.548 E569.45797
G0 F9000 X-20.660 Y-16.983
G1 F1200 X20.660 Y24.337 E576.47021
G0 F9000 X20.660 Y24.902
G1 F1200 X-20.660 Y-16.417 E583.48236
G0 F9000 X-20.660 Y-15.851
G1 F1200 X20.660 Y25.468 E590.49451
G0 F9000 X20.660 Y26.034
G1 F1200 X-20.660 Y-15.286 E597.50675
G0 F9000 X-20.660 Y-14.720
G1 F1200 X20.660 Y26.599 E604.51890
G0 F9000 X20.660 Y27.165
G1 F1200 X-20.660 Y-14.154 E611.53105
G0 F9000 X-20.660 Y-13.589
G1 F1200 X20.660 Y27.731 E618.54329
G0 F9000 X20.660 Y28.296
G1 F1200 X-20.660 Y-13.023 E625.55544
G0 F9000 X-20.660 Y-12.457
G1 F1200 X20.660 Y28.862 E632.56759
G0 F9000 X20.660 Y29.428
G1 F1200 X-20.660 Y-11.892 E639.57983
G0 F9000 X-20.660 Y-11.326
G1 F1200 X20.660 Y29.994 E646.59207
G0 F9000 X20.660 Y30.559
G1 F1200 X-20.660 Y-10.760 E653.60422
G0 F9000 X-20.660 Y-10.195
G1 F1200 X20.660 Y31.125 E660.61645
G0 F9000 X20.660 Y31.691
G1 F1200 X-20.660 Y-9.629 E667.62869
G0 F9000 X-20.660 Y-9.063
G1 F1200 X20.660 Y32.256 E674.64084
G0 F9000 X20.395 Y32.557
G1 F1200 X-20.660 Y-8.498 E681.60811
G0 F9000 X-20.660 Y-7.932
G1 F1200 X19.829 Y32.557 E688.47932
G0 F9000 X19.263 Y32.557
G1 F1200 X-20.660 Y-7.366 E695.25448
G0 F9000 X-20.660 Y-6.800
G1 F1200 X18.698 Y32.557 E701.93367
G0 F9000 X18.132 Y32.557
G1 F1200 X-20.660 Y-6.235 E708.51689
G0 F9000 X-20.660 Y-5.669
G1 F1200 X17.566 Y32.557 E715.00405
G0 F9000 X17.000 Y32.557
G1 F1200 X-20.660 Y-5.103 E721.39517
G0 F9000 X-20.660 Y-4.538
G1 F1200 X16.435 Y32.557 E727.69040
G0 F9000 X15.869 Y32.557
G1 F1200 X-20.660 Y-3.972 E733.88957
G0 F9000 X-20.660 Y-3.406
G1 F1200 X15.303 Y32.557 E739.99270
G0 F9000 X14.738 Y32.557
G1 F1200 X-20.660 Y-2.841 E745.99994
G0 F9000 X-20.660 Y-2.275
G1 F1200 X14.172 Y32.557 E751.91112
G0 F9000 X13.606 Y32.557
